X: 3402
T: MY LODGING IS ON THE COLD GROUND.
N: aka Endearing Young Charms
%R: air, jig
B: James Kerr "Merry Melodies" v.3 p.44 #402
Z: 2016 John Chambers <jc:trillian.mit.edu>
M: 6/8
L: 1/8
K: G
(B/A/) |\
GAG GBd | ceg gfe | dcB AGA | B3 (B2A) |\
GAG GBd | ceg gfe | dgB AGA | G3- G2 :|
|: (d/c/) |\
Bdg g2d | ecg gfe | dcB AGA | B3 (B2A) |\
GAG GBd | ceg gfe | dgB AGA | G3- G2 :|

%%sep 1 1 500
%%sep 1 1 500

